flags/gt.svg

<svg width="512" height="512" viewBox="0 0 512 512" fill="none" xmlns="http://www.w3.org/2000/svg">
<path d="M384 512L128 512L128 -1.11901e-05L384 1.11901e-05L384 512Z" fill="var(--flag-palette-white, #eeeeee)"/>
<path d="M144 512L-5.28978e-05 512L0 -6.29444e-06L144 6.29444e-06L144 512Z" fill="var(--flag-palette-light-blue, #338af3)"/>
<path d="M512 512L368 512L368 -6.29444e-06L512 6.29444e-06L512 512Z" fill="var(--flag-palette-light-blue, #338af3)"/>
<path d="M318.963 193.037L295.352 216.648C305.423 226.719 311.653 240.632 311.653 256C311.653 286.736 286.736 311.652 256.001 311.652C225.266 311.652 200.348 286.736 200.348 256C200.348 240.632 206.578 226.719 216.649 216.648L193.038 193.037C176.923 209.149 166.957 231.41 166.957 256C166.957 305.178 206.823 345.043 256 345.043C305.177 345.043 345.043 305.177 345.043 256C345.043 231.411 335.077 209.15 318.963 193.037Z" fill="var(--flag-palette-green, #6da544)"/>
<path d="M322.898 299.287L279.612 256.001L320.815 214.796L318.948 193.034L307.152 181.236L256 232.388L204.848 181.236L193.052 193.034L191.185 214.796L232.388 256.001L189.101 299.287L212.713 322.897L256 279.612L299.287 322.897L322.898 299.287Z" fill="var(--flag-palette-mid-grey-3, #acabb1)"/>
</svg>

<svg xmlns="http://www.w3.org/2000/svg" width="512" height="512" fill="none"><path fill="var(--flag-palette-white, #eeeeee)" d="M384 512H128V0h256z"/><path fill="var(--flag-palette-light-blue, #338af3)" d="M144 512H0V0h144zm368 0H368V0h144z"/><path fill="var(--flag-palette-green, #6da544)" d="m319 193-23.6 23.6a55.5 55.5 0 0 1-39.4 95 55.7 55.7 0 0 1-39.4-95L193 193a89 89 0 1 0 126 0"/><path fill="var(--flag-palette-mid-grey-3, #acabb1)" d="M322.9 299.3 279.6 256l41.2-41.2L319 193l-11.7-11.8-51.2 51.2-51.2-51.2-11.7 11.8-2 21.8 41.3 41.2-43.3 43.3 23.6 23.6 43.3-43.3 43.3 43.3z"/></svg>
